svg/paperclip_plus.svg

<svg xmlns="http://www.w3.org/2000/svg" viewBox="0 0 24 24"><path d="M18 13.09c-.53.09-1.03.25-1.5.46V6H18zm-5.5 8.41c-2.21 0-4-1.79-4-4V5a2.5 2.5 0 0 1 5 0v10.5c0 .55-.45 1-1 1s-1-.45-1-1V6H10v9.5a2.5 2.5 0 0 0 2.5 2.5c.21 0 .41-.03.6-.08.25-1.34.93-2.51 1.9-3.38V5c0-2.21-1.79-4-4-4S7 2.79 7 5v12.5a5.497 5.497 0 0 0 7.29 5.2c-.32-.41-.59-.86-.79-1.34-.33.08-.66.14-1 .14M20 18v-3h-2v3h-3v2h3v3h2v-3h3v-2z"/></svg>

<svg xmlns="http://www.w3.org/2000/svg" id="mdi-paperclip-plus" viewBox="0 0 24 24"><path d="M18 13.09C17.47 13.18 16.97 13.34 16.5 13.55V6H18V13.09M12.5 21.5C10.29 21.5 8.5 19.71 8.5 17.5V5C8.5 3.62 9.62 2.5 11 2.5S13.5 3.62 13.5 5V15.5C13.5 16.05 13.05 16.5 12.5 16.5S11.5 16.05 11.5 15.5V6H10V15.5C10 16.88 11.12 18 12.5 18C12.71 18 12.91 17.97 13.1 17.92C13.35 16.58 14.03 15.41 15 14.54V5C15 2.79 13.21 1 11 1S7 2.79 7 5V17.5C7 20.54 9.46 23 12.5 23C13.13 23 13.73 22.89 14.29 22.7C13.97 22.29 13.7 21.84 13.5 21.36C13.17 21.44 12.84 21.5 12.5 21.5M20 18V15H18V18H15V20H18V23H20V20H23V18H20Z" /></svg>
